X:1
T:Veni, SM
T:Veni, SM
T:John Stainer, 1890
T:Public Domain Courtesy of the Cyber Hymnal™
C:John Stainer, 1890
Z:Public Domain
Z:Courtesy of the Cyber Hymnal™
%%score ( 1 2 ) ( 3 4 )
L:1/8
Q:1/4=115
M:4/4
K:G
V:1 treble 
V:2 treble 
V:3 bass 
V:4 bass 
V:1
 [DB]2 | [EB]2 [EA]2 [Ec]2 [EA]2 | [DF]6 D2 | [DG]2 [DA]2 [DB]2 [Dd]2 | [DA]6 [DB]2 | %5
 [EB]2 [EA]2 [Ec]2 [EA]2 | [DF]2 D2 [DG]2 [FA]2 | [GB]2 [Dd]2 B2 z x3 | [B,G]6 |] %9
V:2
 x2 | x8 | x6 D2 | x8 | x8 | x8 | x2 D2 x4 | x4 D3 (A2 C) | x6 |] %9
V:3
 G,2 | [C,G,]2 [C,A,]2 [A,,A,]2 [C,A,]2 | [D,A,]6 [C,F,]2 | [B,,G,]2 [D,F,]2 G,2 [B,,G,]2 | %4
 [D,F,]6 G,2 | [C,G,]2 [C,A,]2 [A,,A,]2 [C,A,]2 | [D,A,]2 [C,F,]2 [B,,G,]2 [A,,C]2 | %7
 [G,,B,]2 [B,,G,]2 [D,G,]2 [D,F,]2 x2 | [G,,G,]6 |] %9
V:4
 G,2 | x8 | x8 | x4 G,2 x2 | x6 G,2 | x8 | x8 | x10 | x6 |] %9

